images/company1.svg

<svg width="210" height="40" viewBox="0 0 210 40" fill="none" xmlns="http://www.w3.org/2000/svg">
<g id="Frame" clip-path="url(#clip0_282_1437)">
<path id="Vector" d="M11.116 8.83199V8.51199C11.116 6.04799 13.58 3.74399 16.044 3.74399C16.7017 3.7334 17.355 3.85247 17.9667 4.09441C18.5784 4.33635 19.1364 4.69642 19.6088 5.15404C20.0813 5.61166 20.459 6.15788 20.7204 6.7615C20.9817 7.36512 21.1216 8.01431 21.132 8.67199V9.29599C21.132 11.456 18.828 13.776 16.508 13.776H15.596C13.276 13.776 11.116 11.456 11.116 8.81599V8.83199ZM0.332031 2.81599V29.328C0.332031 30.72 1.56403 31.952 2.79603 31.952H29.308C30.7 31.952 31.772 30.56 31.772 29.168V2.97599C31.772 1.27999 30.38 0.35199 28.684 0.35199H2.95603C1.72403 0.35199 0.332031 1.59999 0.332031 2.81599ZM50.572 18.224H62.444L62.604 28.864C62.604 29.936 63.676 30.56 64.748 30.56H65.228C66.3 30.56 67.372 29.792 67.372 28.704V4.06399C67.372 2.51199 66.444 1.88799 65.068 1.88799C62.284 1.88799 62.444 3.74399 62.444 6.52799V13.76L50.572 13.92V3.74399C50.572 2.51199 49.34 1.88799 48.268 1.88799C47.18 1.88799 45.804 2.51199 45.804 3.58399V28.704C45.804 29.936 46.716 30.56 47.948 30.56H48.268C51.036 30.56 50.572 28.256 50.572 25.632V18.224ZM118.7 14.224C118.7 13.76 120.844 13.6 121.308 13.6H123.932C127.628 13.6 128.86 16.224 128.86 19.92V20.24C128.86 24.24 127.324 26.56 123.468 26.56H121.308C120.7 26.56 118.7 26.56 118.7 25.936V14.224ZM122.38 30.704C129.324 30.704 133.804 27.472 133.804 20.544V19.776C133.804 13.6 129.932 9.59999 123.932 9.59999H122.7C118.86 9.59999 113.932 9.91999 113.932 13.76V37.488C113.932 38.576 115.164 39.184 116.252 39.184H116.412C117.628 39.184 118.716 38.576 118.716 37.344V30.24L122.396 30.704H122.38ZM141.964 21.008V18.848C141.964 15.616 143.66 12.992 146.892 12.992H148.284C152.284 12.992 153.372 15.92 153.372 19.92V20.08C153.372 22.08 153.052 23.92 152.14 25.008C151.676 25.632 151.212 26.096 150.444 26.4C149.356 26.864 149.212 26.72 147.82 26.864C146.994 26.9794 146.154 26.9147 145.356 26.6744C144.557 26.4341 143.821 26.0239 143.196 25.472C142.428 24.704 141.964 23.008 141.964 20.992V21.008ZM137.196 19.776V20.848C137.196 27.472 141.196 31.024 147.82 31.024C154.908 31.024 158.46 27.184 158.46 20.24V19.456C158.47 16.6858 157.482 14.0047 155.676 11.904C153.98 10.224 151.212 9.29599 147.836 9.29599C140.892 9.29599 137.196 12.832 137.196 19.776ZM76.78 21.008V19.312C76.78 15.616 78.316 13.152 82.012 13.152H83.404C86.636 13.152 88.332 15.616 88.332 18.848V21.472C88.332 25.008 86.172 27.008 82.636 27.008C78.476 27.168 76.78 24.864 76.78 21.008ZM71.836 19.312V20.24C71.836 27.168 75.548 30.864 82.476 30.864H82.796C89.404 30.864 93.116 27.024 93.116 20.384V19.008C93.116 12.832 89.116 9.13599 82.94 9.13599H82.62C79.244 9.13599 76.62 10.064 74.78 11.76C73.8161 12.7629 73.0598 13.9463 72.5546 15.2423C72.0494 16.5383 71.8052 17.9213 71.836 19.312ZM175.26 30.56C177.42 30.56 177.564 29.488 177.564 27.328V21.76C177.564 17.6 176.636 13.904 180.956 13.904H183.884C188.204 13.904 187.436 17.584 187.436 21.76V27.456C187.436 29.776 187.74 30.544 190.044 30.544H190.204C191.132 30.544 192.364 29.92 192.364 29.008V16.368C192.364 14.208 191.292 12.368 190.044 11.28C188.972 10.352 186.508 9.74399 184.348 9.74399H180.348C175.1 9.74399 172.796 12.512 172.796 17.744V28.544C172.796 29.92 173.868 30.544 175.1 30.544H175.26V30.56ZM102.364 24.4L102.204 13.76H108.684C109.452 13.76 109.756 12.832 109.756 12.064V11.744C109.756 10.832 109.132 10.064 108.22 10.064H102.044V4.36799C102.044 3.11999 100.972 2.51199 99.74 2.51199H99.58C98.348 2.51199 97.276 3.11999 97.276 4.51199V25.152C97.276 29.024 100.508 30.56 104.364 30.56H108.524C109.452 30.56 110.06 29.792 110.06 28.864V28.544C110.38 24.544 102.364 29.488 102.364 24.384V24.4ZM202.22 24.24C201.916 23.776 202.06 16.848 202.06 15.76C202.06 13.152 201.612 13.6 204.236 13.6H208.556C209.324 13.6 209.628 12.832 209.628 11.904V11.6C209.628 10.672 209.308 10.224 208.54 9.90399L202.076 9.74399L201.916 3.74399C201.916 2.67199 200.844 2.04799 199.612 2.04799H199.292C198.06 2.04799 196.988 2.81599 196.988 4.20799V24.4C196.988 28.88 199.612 30.56 204.076 30.56H208.236C209.164 30.56 209.932 29.936 209.932 29.024V28.4C209.932 26.4 207.308 27.008 205.308 27.008C203.612 27.008 202.22 26.24 202.22 24.24ZM162.62 28.24C162.62 29.632 163.388 30.56 164.62 30.56H165.548C166.476 30.56 167.548 29.792 167.548 28.864V11.6C167.548 10.528 166.62 9.75999 165.548 9.75999H164.924C163.548 9.75999 162.62 10.528 162.62 11.904V28.256V28.24ZM161.996 3.59999C161.996 5.27999 163.388 6.67199 165.084 6.67199C166.62 6.67199 168.172 5.27999 168.172 3.90399V3.27999C168.172 1.74399 166.62 0.51199 165.084 0.51199C163.548 0.51199 161.996 2.04799 161.996 3.58399V3.59999ZM202.22 24.24V13.76L208.54 13.6H204.22C201.612 13.6 202.076 13.152 202.076 15.76C202.236 16.992 202.076 23.92 202.236 24.24H202.22ZM62.444 13.76H50.572L50.412 3.58399V13.76H62.444ZM102.364 24.4V13.76L108.684 13.6H102.204L102.364 24.4Z" fill="white"/>
</g>
<defs>
<clipPath id="clip0_282_1437">
<rect width="209.6" height="40" fill="white" transform="translate(0.332031)"/>
</clipPath>
</defs>
</svg>

<svg width="210" height="40" fill="none" xmlns="http://www.w3.org/2000/svg"><g clip-path="url(#a)"><path d="M11.116 8.832v-.32c0-2.464 2.464-4.768 4.928-4.768a5.008 5.008 0 0 1 5.088 4.928v.624c0 2.16-2.304 4.48-4.624 4.48h-.912c-2.32 0-4.48-2.32-4.48-4.96v.016ZM.332 2.816v26.512c0 1.392 1.232 2.624 2.464 2.624h26.512c1.392 0 2.464-1.392 2.464-2.784V2.976c0-1.696-1.392-2.624-3.088-2.624H2.956C1.724.352.332 1.6.332 2.816Zm50.24 15.408h11.872l.16 10.64c0 1.072 1.072 1.696 2.144 1.696h.48c1.072 0 2.144-.768 2.144-1.856V4.064c0-1.552-.928-2.176-2.304-2.176-2.784 0-2.624 1.856-2.624 4.64v7.232l-11.872.16V3.744c0-1.232-1.232-1.856-2.304-1.856-1.088 0-2.464.624-2.464 1.696v25.12c0 1.232.912 1.856 2.144 1.856h.32c2.768 0 2.304-2.304 2.304-4.928v-7.408Zm68.128-4c0-.464 2.144-.624 2.608-.624h2.624c3.696 0 4.928 2.624 4.928 6.32v.32c0 4-1.536 6.32-5.392 6.32h-2.16c-.608 0-2.608 0-2.608-.624V14.224Zm3.68 16.48c6.944 0 11.424-3.232 11.424-10.16v-.768c0-6.176-3.872-10.176-9.872-10.176H122.7c-3.84 0-8.768.32-8.768 4.16v23.728c0 1.088 1.232 1.696 2.32 1.696h.16c1.216 0 2.304-.608 2.304-1.84V30.24l3.68.464h-.016Zm19.584-9.696v-2.16c0-3.232 1.696-5.856 4.928-5.856h1.392c4 0 5.088 2.928 5.088 6.928v.16c0 2-.32 3.84-1.232 4.928-.464.624-.928 1.088-1.696 1.392-1.088.464-1.232.32-2.624.464a5.772 5.772 0 0 1-4.624-1.392c-.768-.768-1.232-2.464-1.232-4.48v.016Zm-4.768-1.232v1.072c0 6.624 4 10.176 10.624 10.176 7.088 0 10.64-3.84 10.64-10.784v-.784a11.52 11.52 0 0 0-2.784-7.552c-1.696-1.68-4.464-2.608-7.84-2.608-6.944 0-10.64 3.536-10.64 10.48ZM76.78 21.008v-1.696c0-3.696 1.536-6.16 5.232-6.16h1.392c3.232 0 4.928 2.464 4.928 5.696v2.624c0 3.536-2.16 5.536-5.696 5.536-4.16.16-5.856-2.144-5.856-6Zm-4.944-1.696v.928c0 6.928 3.712 10.624 10.64 10.624h.32c6.608 0 10.32-3.84 10.32-10.48v-1.376c0-6.176-4-9.872-10.176-9.872h-.32c-3.376 0-6 .928-7.84 2.624a10.56 10.56 0 0 0-2.944 7.552ZM175.26 30.56c2.16 0 2.304-1.072 2.304-3.232V21.76c0-4.16-.928-7.856 3.392-7.856h2.928c4.32 0 3.552 3.68 3.552 7.856v5.696c0 2.32.304 3.088 2.608 3.088h.16c.928 0 2.16-.624 2.16-1.536v-12.64c0-2.16-1.072-4-2.32-5.088-1.072-.928-3.536-1.536-5.696-1.536h-4c-5.248 0-7.552 2.768-7.552 8v10.8c0 1.376 1.072 2 2.304 2h.16v.016Zm-72.896-6.16-.16-10.64h6.48c.768 0 1.072-.928 1.072-1.696v-.32c0-.912-.624-1.68-1.536-1.68h-6.176V4.368c0-1.248-1.072-1.856-2.304-1.856h-.16c-1.232 0-2.304.608-2.304 2v20.64c0 3.872 3.232 5.408 7.088 5.408h4.16c.928 0 1.536-.768 1.536-1.696v-.32c.32-4-7.696.944-7.696-4.16v.016Zm99.856-.16c-.304-.464-.16-7.392-.16-8.48 0-2.608-.448-2.16 2.176-2.16h4.32c.768 0 1.072-.768 1.072-1.696V11.6c0-.928-.32-1.376-1.088-1.696l-6.464-.16-.16-6c0-1.072-1.072-1.696-2.304-1.696h-.32c-1.232 0-2.304.768-2.304 2.16V24.4c0 4.48 2.624 6.16 7.088 6.16h4.16c.928 0 1.696-.624 1.696-1.536V28.4c0-2-2.624-1.392-4.624-1.392-1.696 0-3.088-.768-3.088-2.768Zm-39.6 4c0 1.392.768 2.32 2 2.32h.928c.928 0 2-.768 2-1.696V11.6c0-1.072-.928-1.84-2-1.84h-.624c-1.376 0-2.304.768-2.304 2.144v16.352-.016Zm-.624-24.64c0 1.68 1.392 3.072 3.088 3.072 1.536 0 3.088-1.392 3.088-2.768V3.28c0-1.536-1.552-2.768-3.088-2.768s-3.088 1.536-3.088 3.072V3.6Zm40.224 20.64V13.76l6.32-.16h-4.32c-2.608 0-2.144-.448-2.144 2.16.16 1.232 0 8.16.16 8.48h-.016ZM62.444 13.76H50.572l-.16-10.176V13.76h12.032Zm39.92 10.64V13.76l6.32-.16h-6.48l.16 10.8Z" fill="#fff"/></g><defs><clipPath id="a"><path fill="#fff" transform="translate(.332)" d="M0 0h209.6v40H0z"/></clipPath></defs></svg>
